src/assets/icons/pen.svg

<svg fill="none" height="32" viewBox="0 0 32 32" width="32" xmlns="http://www.w3.org/2000/svg"><path d="m13.6317 21.9987-3.6299-3.6291 8.7796-8.77755 3.6299 3.62905zm-3.9692-2.9898 3.3298 3.329-4.9923 1.6621zm13.8653-6.8992-.6296.6295-3.6347-3.63389.6296-.62947c.6342-.63445 1.6627-.63445 2.2969 0l1.3378 1.33749c.6296.63617.6296 1.66037 0 2.29637z" fill="#2e4053"/></svg>

<svg width="32" height="32" viewBox="0 0 32 32" fill="none" xmlns="http://www.w3.org/2000/svg">
<path d="M13.6317 21.9987L10.0018 18.3696L18.7814 9.59205L22.4113 13.2211L13.6317 21.9987ZM9.6625 19.0089L12.9923 22.3379L8 24L9.6625 19.0089ZM23.5278 12.1097L22.8982 12.7392L19.2635 9.10531L19.8931 8.47584C20.5273 7.84139 21.5558 7.84139 22.19 8.47584L23.5278 9.81333C24.1574 10.4495 24.1574 11.4737 23.5278 12.1097Z" fill="#2E4053"/>
</svg>
